X:1
T:Title
%%score ( 1 2 ) { 3 | 4 }
L:1/8
Q:1/4=85
M:6/8
K:Ab
V:1 treble nm="Grand Piano, Soprano"
V:2 treble 
V:3 bass nm="Choir Pad, Jesus Is Calling (Shepard)"
V:4 bass 
V:1
 [Ec][DB][CA] [A,C][CE][EA] | [EG][E_G][E=G] [Ed]3 | [Ed][EB][EG] [DF][DE][B,D] | %3
w: By~Fred~S.~Shepard * * * * *|||
 [A,C][CE][CA] [Ec]3 | [Ee][Ed][Ec] [Ec][EB][EA] | [FA][EG][DF] [Fd]3 | [Ec][EB][EA] [DE][DF][DE] | %7
w: ||||
[M:9/8] [CA]3- [CA]3/2 z/ A BAE | EE[Ed]- [Ed]/ z/ z F GFC | %9
w: ||
 CC[Cc]- [Cc]/ z/ z [Ec] [Ed][Ee][=DA]- | [DA]2 [=Dc]- [Dc]/ z/ z [Dc] [DB][DA]B- | %11
w: ||
 B2- [DB]- [DB]/ z/ z A BAG- | [EG-][EG][Ed]- [Ed]/ z/ z F GFC | %13
w: ||
 CC[Cc]- [Cc]/ z/ z [Ec] [Ed][Ee][EA]- | [EA]2 [Ac]- [Ac]/ z/ z [Ec] [EB]E[EA]- | [EA]6 z3 |] %16
w: |||
V:2
 x6 | x6 | x6 | x6 | x6 | x6 | x6 |[M:9/8] z3 z3 z2 G- | G2 z z3 z2 E- | E2 z z3 z3 | z3 z3 z2 E- | %11
 E2 z z3 z2 E | z3 z3 z2 E- | E2 z z3 z3 | x9 | x9 |] %16
V:3
 A,A,A, E,A,C | B,=A,B, B,3 | B,DB, G,G,G, | E,A,A, A,3 | CB,A, A,G,A, | A,A,A, A,3 | A,DC G,A,B, | %7
[M:9/8] A,6 z2[K:treble] D | DDG,- G,/ z/ z z z2[K:bass] A, | A,A,E,- E,/ z/ z A, A,A,A,- | %10
 A,2 A,- A,/ z/ z A, A,F,G,- | G,6 z2[K:treble] D | DDG,- G,/ z/ z z z2[K:bass] A, | %13
 A,A,E,- E,/ z/ z A, B,[K:treble]CC- | C2 E- E/ z/ z D DDC- | C6 z3 |] %16
V:4
 A,,A,,A,, A,,A,,A,, | E,E,E, E,3 | E,E,E, E,E,E, | A,,A,,A,, A,,3 | A, .A,2 A,,B,,C, | %5
 D,D,D, D,3 | E,E,E, E,E,E, |[M:9/8] A,,6 z2 E, | E,E,E,- E,/ z/ z z z2 A,, | %9
 A,,A,,A,,- A,,/ z/ z A,, A,,A,,F,- | F,2 B,,- B,,/ z/ z B,, B,,B,,E,- | E,6 z2 E, | %12
 E,E,E,- E,/ z/ z z z2 A,, | A,,A,,A,,- A,,/ z/ z z A,A,E,- | E,2 E,- E,/ z/ z E, E,E,[A,,A,]- | %15
 [A,,A,]6 z3 |] %16

